X: 429
T: S kamenicki friat Mamo
O: Serbia
F: http://www.youtube.com/watch?v=FckJfghYGCU
F: http://www.youtube.com/watch?v=pYCc_puFMIw
F: http://www.youtube.com/watch?v=ILwOeYpRins
M: 2/4
L: 1/8
Q: 1/4=160
K: Dphr
%%MIDI program 23 Tango Accordian
  ^FAGF   |E2D2  |D2D2   |D4    |\
|:A2B2    |.c2.c2|.c2.c2.|.c2.d2|\
  .c2.B2  |.c2.B2|.A2.A2 |A4::
  .B.B.B.B|.B.BB2|BcBA   |B2A2  |\
  B2A2    |G2A2  |G3^F   |^F4   :|



